X: 197
T: The Duke of Athols Rant
%R: strathspey, rant
B: "The Compleat Country Dancing-Master" printed by John Walsh, London ca. 1740
S: 6: CCDM2 http://imslp.org/wiki/The_Compleat_Country_Dancing-Master_(Various) V.2 (183)
Z: 2013 John Chambers <jc:trillian.mit.edu>
N: Repeats added to satisfy the "Each strain twice" instruction.
M: C|
L: 1/16
K: Em
% - - - - - - - - - - - - - - - - - - - - - - - - -
|: E3EE3E  G3AB3G | c2A2B2G2 c2A2B2G2 | E3EE3E G3AB3G | c2A2B2G2 E4e4 :|
|: g3ag3e dcBA G2B2 | cBcA e2A2 cBcA e2A2 | g3ag3e dcBA G2B2 | c2A2B2G2 E4e4 :|
% - - - - - - - - - - - - - - - - - - - - - - - - -
%%center Each strain twice
%%begintext align
%% First Man sets to the 2d Wo. foot it and turn .| the 1st Wo.
%% and 2d Man does the same :| cross over two Cu. .| and lead
%% thro' two Cu. and foot it and cast off :| First Man sets to the
%% 3d Wo. and the 1st Wo. sets to the 2d Man at the same time
%% and turn the 1st Man 1st Wo. sets to the 2d Wo. and her
%% Partner sets to the 3d Wo. and turns then lead out to
%% the Man's side and turn.
%%endtext
%%sep 1 8 500

%%sep 1 1 500
%%sep 1 1 500
